images/cards/SquareHalf.svg

<svg width="30" height="30" viewBox="0 0 30 30" fill="none" xmlns="http://www.w3.org/2000/svg">
<path d="M23.9062 5.15625H6.09375C5.57598 5.15625 5.15625 5.57598 5.15625 6.09375V23.9062C5.15625 24.424 5.57598 24.8438 6.09375 24.8438H23.9062C24.424 24.8438 24.8438 24.424 24.8438 23.9062V6.09375C24.8438 5.57598 24.424 5.15625 23.9062 5.15625Z" stroke="#2B2A28" stroke-linecap="round" stroke-linejoin="round"/>
<path d="M15 5.15625V24.8438" stroke="#2B2A28" stroke-linecap="round" stroke-linejoin="round"/>
<path d="M16.4058 5.15625L24.8439 13.5944" stroke="#2B2A28" stroke-linecap="round" stroke-linejoin="round"/>
<path d="M15 10.3132L24.8438 20.157" stroke="#2B2A28" stroke-linecap="round" stroke-linejoin="round"/>
<path d="M15 16.8757L22.9681 24.8438" stroke="#2B2A28" stroke-linecap="round" stroke-linejoin="round"/>
</svg>

<svg width="30" height="30" fill="none" xmlns="http://www.w3.org/2000/svg"><path d="M23.906 5.156H6.094a.937.937 0 0 0-.938.938v17.812c0 .518.42.938.938.938h17.812c.518 0 .938-.42.938-.938V6.094a.938.938 0 0 0-.938-.938zM15 5.156v19.688M16.406 5.156l8.438 8.438M15 10.313l9.844 9.844M15 16.876l7.968 7.968" stroke="#2B2A28" stroke-linecap="round" stroke-linejoin="round"/></svg>
